build/category/VacationOutline.svg

<svg xmlns="http://www.w3.org/2000/svg" fill="none" viewBox="0 0 24 24" focusable="false"><path d="M0 0H24V24H0z"/><path fill="#74767B" fill-rule="evenodd" d="M12.1497 3.2739C11.1057 3.55364 10.4025 4.06372 9.95043 4.66681C9.52511 3.98491 8.79517 3.36243 7.59111 3.0398C6.49121 2.74508 5.5872 2.85974 4.87079 3.19016C4.16713 3.51471 3.6958 4.02325 3.40317 4.43951C3.14485 4.80698 3.12873 5.24383 3.2939 5.60344C3.45333 5.95054 3.76953 6.20721 4.14923 6.30471L6.02027 6.78155C5.80198 6.9353 5.58448 7.11803 5.36947 7.33304C4.55785 8.14466 4.20894 8.98909 4.14759 9.77752C4.0874 10.5509 4.30824 11.2096 4.53189 11.6631C4.72706 12.0588 5.09393 12.2813 5.4812 12.3149C5.85536 12.3475 6.22839 12.2053 6.4999 11.9338L9.00229 9.43137C9.0106 9.74942 9.02848 10.0698 9.05506 10.3915C9.19537 12.0904 9.581 13.7886 10.1175 15.2338C8.04245 15.7591 6.34883 17.1279 5.34757 18.9402C4.92704 18.7348 4.48303 18.4799 4.01264 18.1675C3.71361 17.9689 3.31018 18.0503 3.11156 18.3493C2.91293 18.6483 2.99433 19.0517 3.29336 19.2504C5.37766 20.6348 7.12431 21.0711 8.69391 20.9684C10.2368 20.8675 11.535 20.2459 12.6847 19.688L12.7276 19.6672C13.8948 19.1006 14.8931 18.6161 15.9998 18.5379C17.0755 18.462 18.334 18.7716 19.9681 20.025C20.253 20.2435 20.661 20.1897 20.8795 19.9048C21.098 19.62 21.0442 19.212 20.7593 18.9935C19.5742 18.0845 18.4991 17.5737 17.4907 17.3554C16.1246 15.9165 14.1035 14.9994 12.0199 14.9994C11.8202 14.9994 11.6228 15.0068 11.4278 15.0214C10.8876 13.6448 10.4896 11.967 10.3506 10.2845C10.2915 9.56841 10.28 8.87613 10.322 8.21518C10.33 8.08966 10.4177 7.98402 10.5389 7.95037L15.6079 6.54277C15.9839 6.44202 16.296 6.18487 16.453 5.83909C16.6155 5.48102 16.599 5.04717 16.3432 4.68154C16.0518 4.26501 15.581 3.75405 14.8767 3.42733C14.1593 3.09461 13.2532 2.97823 12.1497 3.2739ZM9.1492 6.24096L9.06745 6.22007C9.0245 6.20827 8.98073 6.19706 8.93615 6.18651L4.55593 5.06697C4.75883 4.80838 5.0403 4.54359 5.41526 4.37065C5.83594 4.17662 6.42628 4.07354 7.25465 4.2955C8.48318 4.62469 8.9163 5.31557 9.08535 5.88883C9.12095 6.00956 9.14547 6.12817 9.16179 6.24096L9.1492 6.24096ZM15.1908 5.30866L10.5696 6.54692C10.5726 6.52131 10.576 6.49542 10.5798 6.46927C10.6328 6.2525 10.6934 6.04077 10.7621 5.83446C10.8108 5.7265 10.8699 5.61935 10.9413 5.51533C11.199 5.1396 11.6515 4.75325 12.4862 4.5296C13.3171 4.30697 13.9086 4.41133 14.3296 4.60665C14.7063 4.78133 14.9883 5.04868 15.1908 5.30866ZM6.56778 19.4242C7.66344 17.5544 9.64848 16.2994 12.0199 16.2994C13.2187 16.2994 14.4019 16.6716 15.3909 17.3013C14.2396 17.4865 13.2051 17.9895 12.2503 18.4537L12.1171 18.5184C10.9495 19.085 9.86513 19.589 8.60906 19.6712C7.99601 19.7113 7.32345 19.651 6.56778 19.4242ZM9.02054 7.57464L5.63757 10.9576C5.50849 10.6579 5.41193 10.2862 5.44367 9.87838C5.47902 9.42412 5.6777 8.86329 6.28871 8.25228C6.89697 7.64403 7.4614 7.43865 7.92374 7.39726C8.33724 7.36023 8.71514 7.45076 9.02054 7.57464ZM18.277 10.8403C18.277 11.7798 17.5154 12.5413 16.576 12.5413C15.6365 12.5413 14.875 11.7798 14.875 10.8403C14.875 9.90089 15.6365 9.13933 16.576 9.13933C17.5154 9.13933 18.277 9.90089 18.277 10.8403ZM19.577 10.8403C19.577 12.4977 18.2334 13.8413 16.576 13.8413C14.9185 13.8413 13.575 12.4977 13.575 10.8403C13.575 9.18292 14.9185 7.83932 16.576 7.83932C18.2334 7.83932 19.577 9.18292 19.577 10.8403Z"/></svg>

<svg xmlns="http://www.w3.org/2000/svg" fill="none" viewBox="0 0 24 24" focusable="false"><path fill="#74767B" fill-rule="evenodd" d="M12.14 3.27c-1.04.28-1.74.79-2.19 1.39-.43-.68-1.16-1.3-2.36-1.63-1.1-.29-2.01-.18-2.72.16-.71.32-1.18.83-1.47 1.24-.26.37-.28.81-.11 1.17.16.35.47.6.85.7l1.88.48c-.22.15-.44.33-.66.55-.81.81-1.16 1.65-1.22 2.44-.06.78.16 1.43.39 1.89.19.39.56.62.95.65.37.03.74-.11 1.02-.38L9 9.43c.01.31.02.63.05.96.14 1.7.53 3.39 1.06 4.84-2.07.52-3.77 1.89-4.77 3.71-.42-.21-.86-.47-1.33-.78-.3-.2-.7-.11-.9.18-.2.3-.12.71.18.91 2.08 1.38 3.83 1.82 5.4 1.71 1.54-.1 2.84-.72 3.99-1.28l.04-.02c1.17-.56 2.17-1.05 3.28-1.13 1.07-.07 2.33.24 3.96 1.49a.65.65 0 0 0 .79-1.03c-1.18-.91-2.26-1.42-3.26-1.64-1.37-1.44-3.39-2.36-5.47-2.36q-.3 0-.6.03c-.54-1.38-.94-3.06-1.07-4.74q-.09-1.08-.03-2.07c.01-.13.09-.23.21-.26l5.07-1.41c.38-.1.69-.36.85-.71s.14-.79-.11-1.15c-.29-.42-.76-.93-1.47-1.26-.72-.33-1.62-.45-2.73-.15m-3 2.97-.08-.02a.5.5 0 0 0-.13-.04L4.55 5.06c.2-.26.49-.52.86-.69.42-.2 1.01-.3 1.84-.08 1.23.33 1.66 1.02 1.83 1.59.04.12.06.24.08.36zm6.05-.94-4.63 1.24c.01-.02.01-.05.02-.08q.075-.315.18-.63c.05-.11.11-.22.18-.32.25-.38.71-.76 1.54-.99.83-.22 1.42-.11 1.84.08.38.18.66.44.87.7M6.56 19.42c1.1-1.87 3.08-3.13 5.46-3.13 1.19 0 2.38.38 3.37 1.01-1.16.18-2.19.68-3.14 1.15l-.14.06c-1.17.57-2.25 1.07-3.51 1.16a5.7 5.7 0 0 1-2.04-.25M9.02 7.57l-3.39 3.38c-.13-.3-.22-.67-.19-1.08.03-.45.23-1.01.84-1.62s1.18-.82 1.64-.86c.41-.03.79.06 1.1.18m9.25 3.27c0 .93-.76 1.7-1.7 1.7a1.705 1.705 0 0 1 0-3.41c.94 0 1.7.77 1.7 1.71m1.3 0c0 1.65-1.34 3-3 3s-3-1.35-3-3c0-1.66 1.34-3.01 3-3.01s3 1.35 3 3.01"/></svg>
